google-maps.svg

<svg fill="currentColor" viewBox="0 0 24 24"><path d="M18.27 6c1.01 2.17.78 4.73-.33 6.81-.94 1.69-2.29 3.12-3.44 4.69-.5.7-1 1.45-1.37 2.26-.13.27-.22.55-.32.83s-.19.56-.28.84c-.09.26-.2.57-.53.57-.39 0-.5-.44-.58-.74-.24-.73-.48-1.43-.85-2.1-.42-.79-.95-1.52-1.49-2.23zM9.12 8.42l-3.3 3.92c.61 1.29 1.52 2.39 2.39 3.49.21.25.42.51.62.78L13 11.67l-.04.01c-1.46.5-3.08-.24-3.66-1.68-.08-.17-.14-.37-.18-.57a3 3 0 0 1 0-1zm-2.54-3.8-.01.01c-1.62 2.05-1.9 4.9-.93 7.31L9.63 7.2l-.05-.05zm7.64-2.26L11 6.17l.04-.01c1.34-.46 2.84.12 3.52 1.34.15.28.27.58.31.88.06.38.08.65.01 1.02v.01l3.2-3.8a7 7 0 0 0-3.85-3.24zM9.89 6.89l3.91-4.65-.04-.01C13.18 2.08 12.59 2 12 2c-1.97 0-3.83.85-5.15 2.31l-.02.01z"/></svg>

<svg  viewBox="0 0 24 24" fill="currentColor"><path  d="M18.27 6C19.28 8.17 19.05 10.73 17.94 12.81C17 14.5 15.65 15.93 14.5 17.5C14 18.2 13.5 18.95 13.13 19.76C13 20.03 12.91 20.31 12.81 20.59C12.71 20.87 12.62 21.15 12.53 21.43C12.44 21.69 12.33 22 12 22H12C11.61 22 11.5 21.56 11.42 21.26C11.18 20.53 10.94 19.83 10.57 19.16C10.15 18.37 9.62 17.64 9.08 16.93L18.27 6M9.12 8.42L5.82 12.34C6.43 13.63 7.34 14.73 8.21 15.83C8.42 16.08 8.63 16.34 8.83 16.61L13 11.67L12.96 11.68C11.5 12.18 9.88 11.44 9.3 10C9.22 9.83 9.16 9.63 9.12 9.43C9.07 9.06 9.06 8.79 9.12 8.43L9.12 8.42M6.58 4.62L6.57 4.63C4.95 6.68 4.67 9.53 5.64 11.94L9.63 7.2L9.58 7.15L6.58 4.62M14.22 2.36L11 6.17L11.04 6.16C12.38 5.7 13.88 6.28 14.56 7.5C14.71 7.78 14.83 8.08 14.87 8.38C14.93 8.76 14.95 9.03 14.88 9.4L14.88 9.41L18.08 5.61C17.24 4.09 15.87 2.93 14.23 2.37L14.22 2.36M9.89 6.89L13.8 2.24L13.76 2.23C13.18 2.08 12.59 2 12 2C10.03 2 8.17 2.85 6.85 4.31L6.83 4.32L9.89 6.89Z"/></svg>
